database/seeders/images/presets/Autumn_Leaves.xmp
<?xpacket begin="﻿" id="W5M0MpCehiHzreSzNTczkc9d"?>
<x:xmpmeta xmlns:x="adobe:ns:meta/">
 <rdf:RDF xmlns:rdf="http://www.w3.org/1999/02/22-rdf-syntax-ns#">
  <rdf:Description
   xmlns:crs="http://ns.adobe.com/camera-raw-settings/1.0/"
   crs:Version="12.0"
   crs:Exposure="-0.80"
   crs:Contrast="32.10"
   crs:Highlights="27.69"
   crs:Shadows="-47.51"
   crs:Whites="39.53"
   crs:Blacks="-32.13"
   crs:Clarity="19.17"
   crs:Vibrance="38.48"
   crs:Saturation="8.14"
  />
 </rdf:RDF>
</x:xmpmeta>
<?xpacket end="w"?>