database/seeders/images/presets/B&N_Alto_Contraste.xmp
<?xml version='1.0' encoding='UTF-8'?>
<xmpmeta xmlns="adobe:ns:meta/" xmlns:rdf="http://www.w3.org/1999/02/22-rdf-syntax-ns#" xmlns:crs="http://ns.adobe.com/camera-raw-settings/1.0/">
  <rdf:RDF>
    <rdf:Description rdf:about="" crs:ConvertToGrayscale="1" crs:Contrast2012="50" crs:Clarity2012="40" crs:Shadows2012="20" crs:Whites2012="25" crs:Blacks2012="-30"/>
  </rdf:RDF>
</xmpmeta>
