database/seeders/images/presets/Beach_Breeze.xmp
<?xpacket begin="﻿" id="W5M0MpCehiHzreSzNTczkc9d"?>
<x:xmpmeta xmlns:x="adobe:ns:meta/">
 <rdf:RDF xmlns:rdf="http://www.w3.org/1999/02/22-rdf-syntax-ns#">
  <rdf:Description
   xmlns:crs="http://ns.adobe.com/camera-raw-settings/1.0/"
   crs:Version="12.0"
   crs:Exposure="-0.12"
   crs:Contrast="-45.00"
   crs:Highlights="-29.32"
   crs:Shadows="66.86"
   crs:Whites="-28.66"
   crs:Blacks="-49.03"
   crs:Clarity="30.46"
   crs:Vibrance="65.65"
   crs:Saturation="23.15"
  />
 </rdf:RDF>
</x:xmpmeta>
<?xpacket end="w"?>