database/seeders/images/presets/Bokeh_Lights.xmp
<?xpacket begin="﻿" id="W5M0MpCehiHzreSzNTczkc9d"?>
<x:xmpmeta xmlns:x="adobe:ns:meta/">
 <rdf:RDF xmlns:rdf="http://www.w3.org/1999/02/22-rdf-syntax-ns#">
  <rdf:Description
   xmlns:crs="http://ns.adobe.com/camera-raw-settings/1.0/"
   crs:Version="12.0"
   crs:Exposure="0.20"
   crs:Contrast="48.12"
   crs:Highlights="54.49"
   crs:Shadows="-2.94"
   crs:Whites="-6.75"
   crs:Blacks="-18.46"
   crs:Clarity="36.95"
   crs:Vibrance="-34.43"
   crs:Saturation="-20.51"
  />
 </rdf:RDF>
</x:xmpmeta>
<?xpacket end="w"?>