database/seeders/images/presets/Cinematic_Wide.xmp
<?xpacket begin="﻿" id="W5M0MpCehiHzreSzNTczkc9d"?>
<x:xmpmeta xmlns:x="adobe:ns:meta/">
 <rdf:RDF xmlns:rdf="http://www.w3.org/1999/02/22-rdf-syntax-ns#">
  <rdf:Description
   xmlns:crs="http://ns.adobe.com/camera-raw-settings/1.0/"
   crs:Version="12.0"
   crs:Exposure="0.18"
   crs:Contrast="42.87"
   crs:Highlights="53.52"
   crs:Shadows="19.11"
   crs:Whites="2.11"
   crs:Blacks="-24.29"
   crs:Clarity="-35.49"
   crs:Vibrance="28.87"
   crs:Saturation="40.17"
  />
 </rdf:RDF>
</x:xmpmeta>
<?xpacket end="w"?>