database/seeders/images/presets/Cinematic_Teal.xmp
<?xpacket begin="﻿" id="W5M0MpCehiHzreSzNTczkc9d"?>
<x:xmpmeta xmlns:x="adobe:ns:meta/">
 <rdf:RDF xmlns:rdf="http://www.w3.org/1999/02/22-rdf-syntax-ns#">
  <rdf:Description
   xmlns:crs="http://ns.adobe.com/camera-raw-settings/1.0/"
   crs:Version="12.0"
   crs:Exposure="-0.35"
   crs:Contrast="-36.30"
   crs:Highlights="6.12"
   crs:Shadows="-54.01"
   crs:Whites="-42.26"
   crs:Blacks="-13.69"
   crs:Clarity="-63.06"
   crs:Vibrance="-42.13"
   crs:Saturation="-86.29"
  />
 </rdf:RDF>
</x:xmpmeta>
<?xpacket end="w"?>