database/seeders/images/presets/Cine_Suave.xmp
<?xml version='1.0' encoding='UTF-8'?>
<xmpmeta xmlns="adobe:ns:meta/" xmlns:rdf="http://www.w3.org/1999/02/22-rdf-syntax-ns#" xmlns:crs="http://ns.adobe.com/camera-raw-settings/1.0/">
  <rdf:RDF>
    <rdf:Description rdf:about="" crs:Contrast2012="10" crs:Highlights2012="-20" crs:Shadows2012="30" crs:Clarity2012="5" crs:Temperature="6200" crs:Tint="10"/>
  </rdf:RDF>
</xmpmeta>
