database/seeders/images/presets/Cinematic_Orange.xmp
<?xpacket begin="﻿" id="W5M0MpCehiHzreSzNTczkc9d"?>
<x:xmpmeta xmlns:x="adobe:ns:meta/">
 <rdf:RDF xmlns:rdf="http://www.w3.org/1999/02/22-rdf-syntax-ns#">
  <rdf:Description
   xmlns:crs="http://ns.adobe.com/camera-raw-settings/1.0/"
   crs:Version="12.0"
   crs:Exposure="-0.79"
   crs:Contrast="-3.04"
   crs:Highlights="96.43"
   crs:Shadows="-2.73"
   crs:Whites="-34.86"
   crs:Blacks="-39.99"
   crs:Clarity="32.55"
   crs:Vibrance="-50.83"
   crs:Saturation="-31.52"
  />
 </rdf:RDF>
</x:xmpmeta>
<?xpacket end="w"?>