database/seeders/images/presets/Crisp_Clarity.xmp
<?xpacket begin="﻿" id="W5M0MpCehiHzreSzNTczkc9d"?>
<x:xmpmeta xmlns:x="adobe:ns:meta/">
 <rdf:RDF xmlns:rdf="http://www.w3.org/1999/02/22-rdf-syntax-ns#">
  <rdf:Description
   xmlns:crs="http://ns.adobe.com/camera-raw-settings/1.0/"
   crs:Version="12.0"
   crs:Exposure="0.53"
   crs:Contrast="-45.74"
   crs:Highlights="8.29"
   crs:Shadows="57.40"
   crs:Whites="32.02"
   crs:Blacks="21.48"
   crs:Clarity="-12.22"
   crs:Vibrance="44.52"
   crs:Saturation="51.75"
  />
 </rdf:RDF>
</x:xmpmeta>
<?xpacket end="w"?>