database/seeders/images/presets/Cross_Process.xmp
<?xpacket begin="﻿" id="W5M0MpCehiHzreSzNTczkc9d"?>
<x:xmpmeta xmlns:x="adobe:ns:meta/">
 <rdf:RDF xmlns:rdf="http://www.w3.org/1999/02/22-rdf-syntax-ns#">
  <rdf:Description
   xmlns:crs="http://ns.adobe.com/camera-raw-settings/1.0/"
   crs:Version="12.0"
   crs:Exposure="0.31"
   crs:Contrast="-35.38"
   crs:Highlights="33.29"
   crs:Shadows="23.50"
   crs:Whites="-18.12"
   crs:Blacks="17.05"
   crs:Clarity="60.30"
   crs:Vibrance="90.66"
   crs:Saturation="83.29"
  />
 </rdf:RDF>
</x:xmpmeta>
<?xpacket end="w"?>