database/seeders/images/presets/Cyberpunk_Neon.xmp
<?xpacket begin="﻿" id="W5M0MpCehiHzreSzNTczkc9d"?>
<x:xmpmeta xmlns:x="adobe:ns:meta/">
 <rdf:RDF xmlns:rdf="http://www.w3.org/1999/02/22-rdf-syntax-ns#">
  <rdf:Description
   xmlns:crs="http://ns.adobe.com/camera-raw-settings/1.0/"
   crs:Version="12.0"
   crs:Exposure="0.13"
   crs:Contrast="-16.02"
   crs:Highlights="80.62"
   crs:Shadows="-92.39"
   crs:Whites="-29.21"
   crs:Blacks="-31.14"
   crs:Clarity="-23.37"
   crs:Vibrance="-0.45"
   crs:Saturation="-9.00"
  />
 </rdf:RDF>
</x:xmpmeta>
<?xpacket end="w"?>