database/seeders/images/presets/Dawn_Softness.xmp
<?xpacket begin="﻿" id="W5M0MpCehiHzreSzNTczkc9d"?>
<x:xmpmeta xmlns:x="adobe:ns:meta/">
 <rdf:RDF xmlns:rdf="http://www.w3.org/1999/02/22-rdf-syntax-ns#">
  <rdf:Description
   xmlns:crs="http://ns.adobe.com/camera-raw-settings/1.0/"
   crs:Version="12.0"
   crs:Exposure="0.60"
   crs:Contrast="-25.17"
   crs:Highlights="79.72"
   crs:Shadows="38.02"
   crs:Whites="-5.51"
   crs:Blacks="-23.59"
   crs:Clarity="-5.99"
   crs:Vibrance="87.12"
   crs:Saturation="78.04"
  />
 </rdf:RDF>
</x:xmpmeta>
<?xpacket end="w"?>