database/seeders/images/presets/Desert_Haze.xmp
<?xpacket begin="﻿" id="W5M0MpCehiHzreSzNTczkc9d"?>
<x:xmpmeta xmlns:x="adobe:ns:meta/">
 <rdf:RDF xmlns:rdf="http://www.w3.org/1999/02/22-rdf-syntax-ns#">
  <rdf:Description
   xmlns:crs="http://ns.adobe.com/camera-raw-settings/1.0/"
   crs:Version="12.0"
   crs:Exposure="-0.28"
   crs:Contrast="37.46"
   crs:Highlights="-58.61"
   crs:Shadows="-34.17"
   crs:Whites="-35.25"
   crs:Blacks="-30.81"
   crs:Clarity="-30.04"
   crs:Vibrance="-15.53"
   crs:Saturation="-48.96"
  />
 </rdf:RDF>
</x:xmpmeta>
<?xpacket end="w"?>