database/seeders/images/presets/Dusk_Shadows.xmp
<?xpacket begin="﻿" id="W5M0MpCehiHzreSzNTczkc9d"?>
<x:xmpmeta xmlns:x="adobe:ns:meta/">
 <rdf:RDF xmlns:rdf="http://www.w3.org/1999/02/22-rdf-syntax-ns#">
  <rdf:Description
   xmlns:crs="http://ns.adobe.com/camera-raw-settings/1.0/"
   crs:Version="12.0"
   crs:Exposure="-0.50"
   crs:Contrast="-14.86"
   crs:Highlights="-83.87"
   crs:Shadows="13.74"
   crs:Whites="-11.08"
   crs:Blacks="39.10"
   crs:Clarity="74.79"
   crs:Vibrance="37.12"
   crs:Saturation="-64.37"
  />
 </rdf:RDF>
</x:xmpmeta>
<?xpacket end="w"?>