database/seeders/images/presets/Earth_Tone_Rich.xmp
<?xpacket begin="﻿" id="W5M0MpCehiHzreSzNTczkc9d"?>
<x:xmpmeta xmlns:x="adobe:ns:meta/">
 <rdf:RDF xmlns:rdf="http://www.w3.org/1999/02/22-rdf-syntax-ns#">
  <rdf:Description
   xmlns:crs="http://ns.adobe.com/camera-raw-settings/1.0/"
   crs:Version="12.0"
   crs:Exposure="-0.86"
   crs:Contrast="14.30"
   crs:Highlights="-97.86"
   crs:Shadows="81.83"
   crs:Whites="-42.76"
   crs:Blacks="45.27"
   crs:Clarity="15.42"
   crs:Vibrance="-33.08"
   crs:Saturation="66.24"
  />
 </rdf:RDF>
</x:xmpmeta>
<?xpacket end="w"?>