database/seeders/images/presets/Film_Grain.xmp
<?xpacket begin="﻿" id="W5M0MpCehiHzreSzNTczkc9d"?>
<x:xmpmeta xmlns:x="adobe:ns:meta/">
 <rdf:RDF xmlns:rdf="http://www.w3.org/1999/02/22-rdf-syntax-ns#">
  <rdf:Description
   xmlns:crs="http://ns.adobe.com/camera-raw-settings/1.0/"
   crs:Version="12.0"
   crs:Exposure="-0.37"
   crs:Contrast="-4.23"
   crs:Highlights="-3.19"
   crs:Shadows="-65.43"
   crs:Whites="-40.33"
   crs:Blacks="-6.89"
   crs:Clarity="-67.25"
   crs:Vibrance="-32.79"
   crs:Saturation="59.99"
  />
 </rdf:RDF>
</x:xmpmeta>
<?xpacket end="w"?>