database/seeders/images/presets/Foggy_Morning.xmp
<?xpacket begin="﻿" id="W5M0MpCehiHzreSzNTczkc9d"?>
<x:xmpmeta xmlns:x="adobe:ns:meta/">
 <rdf:RDF xmlns:rdf="http://www.w3.org/1999/02/22-rdf-syntax-ns#">
  <rdf:Description
   xmlns:crs="http://ns.adobe.com/camera-raw-settings/1.0/"
   crs:Version="12.0"
   crs:Exposure="0.12"
   crs:Contrast="23.07"
   crs:Highlights="-16.93"
   crs:Shadows="75.45"
   crs:Whites="18.97"
   crs:Blacks="-3.26"
   crs:Clarity="-91.93"
   crs:Vibrance="-47.19"
   crs:Saturation="7.37"
  />
 </rdf:RDF>
</x:xmpmeta>
<?xpacket end="w"?>