database/seeders/images/presets/Golden_Hour_Glow.xmp
<?xpacket begin="﻿" id="W5M0MpCehiHzreSzNTczkc9d"?>
<x:xmpmeta xmlns:x="adobe:ns:meta/">
 <rdf:RDF xmlns:rdf="http://www.w3.org/1999/02/22-rdf-syntax-ns#">
  <rdf:Description
   xmlns:crs="http://ns.adobe.com/camera-raw-settings/1.0/"
   crs:Version="12.0"
   crs:Exposure="-0.90"
   crs:Contrast="11.18"
   crs:Highlights="84.13"
   crs:Shadows="73.11"
   crs:Whites="44.08"
   crs:Blacks="-34.04"
   crs:Clarity="55.41"
   crs:Vibrance="-98.62"
   crs:Saturation="-73.20"
  />
 </rdf:RDF>
</x:xmpmeta>
<?xpacket end="w"?>