database/seeders/images/presets/HDR_Natural.xmp
<?xml version='1.0' encoding='UTF-8'?>
<xmpmeta xmlns="adobe:ns:meta/" xmlns:rdf="http://www.w3.org/1999/02/22-rdf-syntax-ns#" xmlns:crs="http://ns.adobe.com/camera-raw-settings/1.0/">
  <rdf:RDF>
    <rdf:Description rdf:about="" crs:Contrast2012="30" crs:Highlights2012="-60" crs:Shadows2012="60" crs:Clarity2012="25" crs:Whites2012="20" crs:Blacks2012="-20"/>
  </rdf:RDF>
</xmpmeta>
