database/seeders/images/presets/HDR_Pop.xmp
<?xpacket begin="﻿" id="W5M0MpCehiHzreSzNTczkc9d"?>
<x:xmpmeta xmlns:x="adobe:ns:meta/">
 <rdf:RDF xmlns:rdf="http://www.w3.org/1999/02/22-rdf-syntax-ns#">
  <rdf:Description
   xmlns:crs="http://ns.adobe.com/camera-raw-settings/1.0/"
   crs:Version="12.0"
   crs:Exposure="0.04"
   crs:Contrast="47.47"
   crs:Highlights="56.69"
   crs:Shadows="87.22"
   crs:Whites="-28.52"
   crs:Blacks="13.66"
   crs:Clarity="-75.75"
   crs:Vibrance="31.98"
   crs:Saturation="2.35"
  />
 </rdf:RDF>
</x:xmpmeta>
<?xpacket end="w"?>