database/seeders/images/presets/High_Key_Bright.xmp
<?xpacket begin="﻿" id="W5M0MpCehiHzreSzNTczkc9d"?>
<x:xmpmeta xmlns:x="adobe:ns:meta/">
 <rdf:RDF xmlns:rdf="http://www.w3.org/1999/02/22-rdf-syntax-ns#">
  <rdf:Description
   xmlns:crs="http://ns.adobe.com/camera-raw-settings/1.0/"
   crs:Version="12.0"
   crs:Exposure="-0.33"
   crs:Contrast="-30.01"
   crs:Highlights="6.53"
   crs:Shadows="-83.41"
   crs:Whites="0.60"
   crs:Blacks="37.12"
   crs:Clarity="75.77"
   crs:Vibrance="-81.82"
   crs:Saturation="70.53"
  />
 </rdf:RDF>
</x:xmpmeta>
<?xpacket end="w"?>