database/seeders/images/presets/Infrared_Warm.xmp
<?xpacket begin="﻿" id="W5M0MpCehiHzreSzNTczkc9d"?>
<x:xmpmeta xmlns:x="adobe:ns:meta/">
 <rdf:RDF xmlns:rdf="http://www.w3.org/1999/02/22-rdf-syntax-ns#">
  <rdf:Description
   xmlns:crs="http://ns.adobe.com/camera-raw-settings/1.0/"
   crs:Version="12.0"
   crs:Exposure="0.64"
   crs:Contrast="42.67"
   crs:Highlights="-4.56"
   crs:Shadows="-78.78"
   crs:Whites="0.26"
   crs:Blacks="-26.88"
   crs:Clarity="0.66"
   crs:Vibrance="47.13"
   crs:Saturation="51.48"
  />
 </rdf:RDF>
</x:xmpmeta>
<?xpacket end="w"?>