database/seeders/images/presets/Landscape_Sharp.xmp
<?xpacket begin="﻿" id="W5M0MpCehiHzreSzNTczkc9d"?>
<x:xmpmeta xmlns:x="adobe:ns:meta/">
 <rdf:RDF xmlns:rdf="http://www.w3.org/1999/02/22-rdf-syntax-ns#">
  <rdf:Description
   xmlns:crs="http://ns.adobe.com/camera-raw-settings/1.0/"
   crs:Version="12.0"
   crs:Exposure="0.39"
   crs:Contrast="-6.51"
   crs:Highlights="-61.98"
   crs:Shadows="17.75"
   crs:Whites="34.29"
   crs:Blacks="-15.80"
   crs:Clarity="-55.00"
   crs:Vibrance="54.33"
   crs:Saturation="-28.40"
  />
 </rdf:RDF>
</x:xmpmeta>
<?xpacket end="w"?>