database/seeders/images/presets/Low_Key_Drama.xmp
<?xpacket begin="﻿" id="W5M0MpCehiHzreSzNTczkc9d"?>
<x:xmpmeta xmlns:x="adobe:ns:meta/">
 <rdf:RDF xmlns:rdf="http://www.w3.org/1999/02/22-rdf-syntax-ns#">
  <rdf:Description
   xmlns:crs="http://ns.adobe.com/camera-raw-settings/1.0/"
   crs:Version="12.0"
   crs:Exposure="-0.20"
   crs:Contrast="46.48"
   crs:Highlights="94.91"
   crs:Shadows="27.46"
   crs:Whites="41.59"
   crs:Blacks="-27.29"
   crs:Clarity="-99.91"
   crs:Vibrance="84.90"
   crs:Saturation="84.72"
  />
 </rdf:RDF>
</x:xmpmeta>
<?xpacket end="w"?>