database/seeders/images/presets/Lush_Greens.xmp
<?xpacket begin="﻿" id="W5M0MpCehiHzreSzNTczkc9d"?>
<x:xmpmeta xmlns:x="adobe:ns:meta/">
 <rdf:RDF xmlns:rdf="http://www.w3.org/1999/02/22-rdf-syntax-ns#">
  <rdf:Description
   xmlns:crs="http://ns.adobe.com/camera-raw-settings/1.0/"
   crs:Version="12.0"
   crs:Exposure="0.66"
   crs:Contrast="-27.16"
   crs:Highlights="62.91"
   crs:Shadows="30.70"
   crs:Whites="23.77"
   crs:Blacks="6.23"
   crs:Clarity="-75.90"
   crs:Vibrance="-92.23"
   crs:Saturation="95.07"
  />
 </rdf:RDF>
</x:xmpmeta>
<?xpacket end="w"?>