database/seeders/images/presets/Matte_Finish.xmp
<?xpacket begin="﻿" id="W5M0MpCehiHzreSzNTczkc9d"?>
<x:xmpmeta xmlns:x="adobe:ns:meta/">
 <rdf:RDF xmlns:rdf="http://www.w3.org/1999/02/22-rdf-syntax-ns#">
  <rdf:Description
   xmlns:crs="http://ns.adobe.com/camera-raw-settings/1.0/"
   crs:Version="12.0"
   crs:Exposure="0.66"
   crs:Contrast="26.54"
   crs:Highlights="-54.42"
   crs:Shadows="20.92"
   crs:Whites="-5.15"
   crs:Blacks="13.26"
   crs:Clarity="-92.98"
   crs:Vibrance="80.26"
   crs:Saturation="57.65"
  />
 </rdf:RDF>
</x:xmpmeta>
<?xpacket end="w"?>