database/seeders/images/presets/Monochrome_Classic.xmp
<?xpacket begin="﻿" id="W5M0MpCehiHzreSzNTczkc9d"?>
<x:xmpmeta xmlns:x="adobe:ns:meta/">
 <rdf:RDF xmlns:rdf="http://www.w3.org/1999/02/22-rdf-syntax-ns#">
  <rdf:Description
   xmlns:crs="http://ns.adobe.com/camera-raw-settings/1.0/"
   crs:Version="12.0"
   crs:Exposure="0.64"
   crs:Contrast="-20.22"
   crs:Highlights="-27.69"
   crs:Shadows="59.32"
   crs:Whites="24.83"
   crs:Blacks="-0.76"
   crs:Clarity="-47.70"
   crs:Vibrance="66.57"
   crs:Saturation="52.30"
  />
 </rdf:RDF>
</x:xmpmeta>
<?xpacket end="w"?>