database/seeders/images/presets/Moody_Contrast.xmp
<?xpacket begin="﻿" id="W5M0MpCehiHzreSzNTczkc9d"?>
<x:xmpmeta xmlns:x="adobe:ns:meta/">
 <rdf:RDF xmlns:rdf="http://www.w3.org/1999/02/22-rdf-syntax-ns#">
  <rdf:Description
   xmlns:crs="http://ns.adobe.com/camera-raw-settings/1.0/"
   crs:Version="12.0"
   crs:Exposure="-0.34"
   crs:Contrast="11.40"
   crs:Highlights="-20.90"
   crs:Shadows="-94.07"
   crs:Whites="-28.70"
   crs:Blacks="20.61"
   crs:Clarity="-84.88"
   crs:Vibrance="47.08"
   crs:Saturation="84.37"
  />
 </rdf:RDF>
</x:xmpmeta>
<?xpacket end="w"?>