database/seeders/images/presets/Night_Noir.xmp
<?xpacket begin="﻿" id="W5M0MpCehiHzreSzNTczkc9d"?>
<x:xmpmeta xmlns:x="adobe:ns:meta/">
 <rdf:RDF xmlns:rdf="http://www.w3.org/1999/02/22-rdf-syntax-ns#">
  <rdf:Description
   xmlns:crs="http://ns.adobe.com/camera-raw-settings/1.0/"
   crs:Version="12.0"
   crs:Exposure="-0.84"
   crs:Contrast="47.87"
   crs:Highlights="77.43"
   crs:Shadows="-68.78"
   crs:Whites="25.98"
   crs:Blacks="-11.85"
   crs:Clarity="-2.19"
   crs:Vibrance="-1.98"
   crs:Saturation="95.35"
  />
 </rdf:RDF>
</x:xmpmeta>
<?xpacket end="w"?>