database/seeders/images/presets/Orange_Teal.xmp
<?xpacket begin="﻿" id="W5M0MpCehiHzreSzNTczkc9d"?>
<x:xmpmeta xmlns:x="adobe:ns:meta/">
 <rdf:RDF xmlns:rdf="http://www.w3.org/1999/02/22-rdf-syntax-ns#">
  <rdf:Description
   xmlns:crs="http://ns.adobe.com/camera-raw-settings/1.0/"
   crs:Version="12.0"
   crs:Exposure="-0.32"
   crs:Contrast="48.88"
   crs:Highlights="41.45"
   crs:Shadows="-87.96"
   crs:Whites="-33.60"
   crs:Blacks="-44.48"
   crs:Clarity="-14.62"
   crs:Vibrance="-94.71"
   crs:Saturation="48.70"
  />
 </rdf:RDF>
</x:xmpmeta>
<?xpacket end="w"?>