database/seeders/images/presets/Pastel_Dream.xmp
<?xpacket begin="﻿" id="W5M0MpCehiHzreSzNTczkc9d"?>
<x:xmpmeta xmlns:x="adobe:ns:meta/">
 <rdf:RDF xmlns:rdf="http://www.w3.org/1999/02/22-rdf-syntax-ns#">
  <rdf:Description
   xmlns:crs="http://ns.adobe.com/camera-raw-settings/1.0/"
   crs:Version="12.0"
   crs:Exposure="0.44"
   crs:Contrast="-20.71"
   crs:Highlights="-99.47"
   crs:Shadows="-6.96"
   crs:Whites="-39.93"
   crs:Blacks="-6.65"
   crs:Clarity="-25.60"
   crs:Vibrance="67.86"
   crs:Saturation="21.06"
  />
 </rdf:RDF>
</x:xmpmeta>
<?xpacket end="w"?>