database/seeders/images/presets/Pastel_Haze.xmp
<?xpacket begin="﻿" id="W5M0MpCehiHzreSzNTczkc9d"?>
<x:xmpmeta xmlns:x="adobe:ns:meta/">
 <rdf:RDF xmlns:rdf="http://www.w3.org/1999/02/22-rdf-syntax-ns#">
  <rdf:Description
   xmlns:crs="http://ns.adobe.com/camera-raw-settings/1.0/"
   crs:Version="12.0"
   crs:Exposure="-0.50"
   crs:Contrast="-15.97"
   crs:Highlights="-91.56"
   crs:Shadows="-29.18"
   crs:Whites="49.74"
   crs:Blacks="-48.63"
   crs:Clarity="-99.66"
   crs:Vibrance="10.14"
   crs:Saturation="-82.29"
  />
 </rdf:RDF>
</x:xmpmeta>
<?xpacket end="w"?>