database/seeders/images/presets/Portrait_Soft.xmp
<?xpacket begin="﻿" id="W5M0MpCehiHzreSzNTczkc9d"?>
<x:xmpmeta xmlns:x="adobe:ns:meta/">
 <rdf:RDF xmlns:rdf="http://www.w3.org/1999/02/22-rdf-syntax-ns#">
  <rdf:Description
   xmlns:crs="http://ns.adobe.com/camera-raw-settings/1.0/"
   crs:Version="12.0"
   crs:Exposure="0.61"
   crs:Contrast="10.63"
   crs:Highlights="-55.94"
   crs:Shadows="-7.62"
   crs:Whites="25.31"
   crs:Blacks="-18.79"
   crs:Clarity="29.05"
   crs:Vibrance="83.31"
   crs:Saturation="-58.16"
  />
 </rdf:RDF>
</x:xmpmeta>
<?xpacket end="w"?>