database/seeders/images/presets/Rainy_Day_Mood.xmp
<?xpacket begin="﻿" id="W5M0MpCehiHzreSzNTczkc9d"?>
<x:xmpmeta xmlns:x="adobe:ns:meta/">
 <rdf:RDF xmlns:rdf="http://www.w3.org/1999/02/22-rdf-syntax-ns#">
  <rdf:Description
   xmlns:crs="http://ns.adobe.com/camera-raw-settings/1.0/"
   crs:Version="12.0"
   crs:Exposure="0.44"
   crs:Contrast="-17.66"
   crs:Highlights="56.13"
   crs:Shadows="45.50"
   crs:Whites="-20.84"
   crs:Blacks="48.46"
   crs:Clarity="-70.06"
   crs:Vibrance="-79.60"
   crs:Saturation="20.92"
  />
 </rdf:RDF>
</x:xmpmeta>
<?xpacket end="w"?>