database/seeders/images/presets/Retro_Vibe.xmp
<?xpacket begin="﻿" id="W5M0MpCehiHzreSzNTczkc9d"?>
<x:xmpmeta xmlns:x="adobe:ns:meta/">
 <rdf:RDF xmlns:rdf="http://www.w3.org/1999/02/22-rdf-syntax-ns#">
  <rdf:Description
   xmlns:crs="http://ns.adobe.com/camera-raw-settings/1.0/"
   crs:Version="12.0"
   crs:Exposure="0.02"
   crs:Contrast="15.90"
   crs:Highlights="-71.19"
   crs:Shadows="-3.21"
   crs:Whites="-32.11"
   crs:Blacks="-14.28"
   crs:Clarity="30.84"
   crs:Vibrance="11.91"
   crs:Saturation="52.32"
  />
 </rdf:RDF>
</x:xmpmeta>
<?xpacket end="w"?>