database/seeders/images/presets/Soft_Pastels.xmp
<?xpacket begin="﻿" id="W5M0MpCehiHzreSzNTczkc9d"?>
<x:xmpmeta xmlns:x="adobe:ns:meta/">
 <rdf:RDF xmlns:rdf="http://www.w3.org/1999/02/22-rdf-syntax-ns#">
  <rdf:Description
   xmlns:crs="http://ns.adobe.com/camera-raw-settings/1.0/"
   crs:Version="12.0"
   crs:Exposure="-0.09"
   crs:Contrast="29.47"
   crs:Highlights="53.43"
   crs:Shadows="-25.55"
   crs:Whites="-19.42"
   crs:Blacks="12.67"
   crs:Clarity="23.09"
   crs:Vibrance="42.33"
   crs:Saturation="-87.36"
  />
 </rdf:RDF>
</x:xmpmeta>
<?xpacket end="w"?>