database/seeders/images/presets/Spring_Bloom.xmp
<?xpacket begin="﻿" id="W5M0MpCehiHzreSzNTczkc9d"?>
<x:xmpmeta xmlns:x="adobe:ns:meta/">
 <rdf:RDF xmlns:rdf="http://www.w3.org/1999/02/22-rdf-syntax-ns#">
  <rdf:Description
   xmlns:crs="http://ns.adobe.com/camera-raw-settings/1.0/"
   crs:Version="12.0"
   crs:Exposure="0.43"
   crs:Contrast="-30.04"
   crs:Highlights="-81.60"
   crs:Shadows="-80.26"
   crs:Whites="-32.04"
   crs:Blacks="-6.91"
   crs:Clarity="17.03"
   crs:Vibrance="87.64"
   crs:Saturation="25.61"
  />
 </rdf:RDF>
</x:xmpmeta>
<?xpacket end="w"?>