database/seeders/images/presets/Street_Grit.xmp
<?xpacket begin="﻿" id="W5M0MpCehiHzreSzNTczkc9d"?>
<x:xmpmeta xmlns:x="adobe:ns:meta/">
 <rdf:RDF xmlns:rdf="http://www.w3.org/1999/02/22-rdf-syntax-ns#">
  <rdf:Description
   xmlns:crs="http://ns.adobe.com/camera-raw-settings/1.0/"
   crs:Version="12.0"
   crs:Exposure="-0.77"
   crs:Contrast="-23.37"
   crs:Highlights="-63.04"
   crs:Shadows="-74.42"
   crs:Whites="48.14"
   crs:Blacks="30.74"
   crs:Clarity="-33.01"
   crs:Vibrance="-76.62"
   crs:Saturation="-20.43"
  />
 </rdf:RDF>
</x:xmpmeta>
<?xpacket end="w"?>