database/seeders/images/presets/Subtle_Fade.xmp
<?xpacket begin="﻿" id="W5M0MpCehiHzreSzNTczkc9d"?>
<x:xmpmeta xmlns:x="adobe:ns:meta/">
 <rdf:RDF xmlns:rdf="http://www.w3.org/1999/02/22-rdf-syntax-ns#">
  <rdf:Description
   xmlns:crs="http://ns.adobe.com/camera-raw-settings/1.0/"
   crs:Version="12.0"
   crs:Exposure="0.79"
   crs:Contrast="27.43"
   crs:Highlights="-0.80"
   crs:Shadows="-18.88"
   crs:Whites="-21.46"
   crs:Blacks="-42.56"
   crs:Clarity="-44.53"
   crs:Vibrance="90.87"
   crs:Saturation="26.33"
  />
 </rdf:RDF>
</x:xmpmeta>
<?xpacket end="w"?>