database/seeders/images/presets/Summer_Pop.xmp
<?xpacket begin="﻿" id="W5M0MpCehiHzreSzNTczkc9d"?>
<x:xmpmeta xmlns:x="adobe:ns:meta/">
 <rdf:RDF xmlns:rdf="http://www.w3.org/1999/02/22-rdf-syntax-ns#">
  <rdf:Description
   xmlns:crs="http://ns.adobe.com/camera-raw-settings/1.0/"
   crs:Version="12.0"
   crs:Exposure="0.99"
   crs:Contrast="-26.62"
   crs:Highlights="-98.10"
   crs:Shadows="82.34"
   crs:Whites="-41.23"
   crs:Blacks="26.98"
   crs:Clarity="-98.65"
   crs:Vibrance="70.11"
   crs:Saturation="39.80"
  />
 </rdf:RDF>
</x:xmpmeta>
<?xpacket end="w"?>