database/seeders/images/presets/Sunrise_Warmth.xmp
<?xpacket begin="﻿" id="W5M0MpCehiHzreSzNTczkc9d"?>
<x:xmpmeta xmlns:x="adobe:ns:meta/">
 <rdf:RDF xmlns:rdf="http://www.w3.org/1999/02/22-rdf-syntax-ns#">
  <rdf:Description
   xmlns:crs="http://ns.adobe.com/camera-raw-settings/1.0/"
   crs:Version="12.0"
   crs:Exposure="0.12"
   crs:Contrast="-6.74"
   crs:Highlights="-86.38"
   crs:Shadows="1.78"
   crs:Whites="35.28"
   crs:Blacks="31.82"
   crs:Clarity="81.98"
   crs:Vibrance="86.96"
   crs:Saturation="44.37"
  />
 </rdf:RDF>
</x:xmpmeta>
<?xpacket end="w"?>