database/seeders/images/presets/Sunrise_Bliss.xmp
<?xpacket begin="﻿" id="W5M0MpCehiHzreSzNTczkc9d"?>
<x:xmpmeta xmlns:x="adobe:ns:meta/">
 <rdf:RDF xmlns:rdf="http://www.w3.org/1999/02/22-rdf-syntax-ns#">
  <rdf:Description
   xmlns:crs="http://ns.adobe.com/camera-raw-settings/1.0/"
   crs:Version="12.0"
   crs:Exposure="-0.20"
   crs:Contrast="18.66"
   crs:Highlights="-39.71"
   crs:Shadows="-26.77"
   crs:Whites="39.05"
   crs:Blacks="-3.70"
   crs:Clarity="49.43"
   crs:Vibrance="40.29"
   crs:Saturation="-57.33"
  />
 </rdf:RDF>
</x:xmpmeta>
<?xpacket end="w"?>