database/seeders/images/presets/Sunset_Fiesta.xmp
<?xpacket begin="﻿" id="W5M0MpCehiHzreSzNTczkc9d"?>
<x:xmpmeta xmlns:x="adobe:ns:meta/">
 <rdf:RDF xmlns:rdf="http://www.w3.org/1999/02/22-rdf-syntax-ns#">
  <rdf:Description
   xmlns:crs="http://ns.adobe.com/camera-raw-settings/1.0/"
   crs:Version="12.0"
   crs:Exposure="-0.42"
   crs:Contrast="-17.26"
   crs:Highlights="58.66"
   crs:Shadows="-31.80"
   crs:Whites="17.88"
   crs:Blacks="-9.02"
   crs:Clarity="25.98"
   crs:Vibrance="-39.28"
   crs:Saturation="-21.31"
  />
 </rdf:RDF>
</x:xmpmeta>
<?xpacket end="w"?>