database/seeders/images/presets/Tonos_Tierra.xmp
<?xml version='1.0' encoding='UTF-8'?>
<xmpmeta xmlns="adobe:ns:meta/" xmlns:rdf="http://www.w3.org/1999/02/22-rdf-syntax-ns#" xmlns:crs="http://ns.adobe.com/camera-raw-settings/1.0/">
  <rdf:RDF>
    <rdf:Description rdf:about="" crs:Temperature="6500" crs:Tint="15" crs:Vibrance="-10" crs:Saturation="-20" crs:Contrast2012="15" crs:Clarity2012="10"/>
  </rdf:RDF>
</xmpmeta>
