database/seeders/images/presets/Tropical_Punch.xmp
<?xpacket begin="﻿" id="W5M0MpCehiHzreSzNTczkc9d"?>
<x:xmpmeta xmlns:x="adobe:ns:meta/">
 <rdf:RDF xmlns:rdf="http://www.w3.org/1999/02/22-rdf-syntax-ns#">
  <rdf:Description
   xmlns:crs="http://ns.adobe.com/camera-raw-settings/1.0/"
   crs:Version="12.0"
   crs:Exposure="0.17"
   crs:Contrast="13.47"
   crs:Highlights="-67.58"
   crs:Shadows="68.01"
   crs:Whites="-20.04"
   crs:Blacks="6.21"
   crs:Clarity="-34.19"
   crs:Vibrance="19.19"
   crs:Saturation="-25.84"
  />
 </rdf:RDF>
</x:xmpmeta>
<?xpacket end="w"?>