database/seeders/images/presets/Twilight_Blues.xmp
<?xpacket begin="﻿" id="W5M0MpCehiHzreSzNTczkc9d"?>
<x:xmpmeta xmlns:x="adobe:ns:meta/">
 <rdf:RDF xmlns:rdf="http://www.w3.org/1999/02/22-rdf-syntax-ns#">
  <rdf:Description
   xmlns:crs="http://ns.adobe.com/camera-raw-settings/1.0/"
   crs:Version="12.0"
   crs:Exposure="-0.01"
   crs:Contrast="-11.85"
   crs:Highlights="-62.56"
   crs:Shadows="52.58"
   crs:Whites="-35.14"
   crs:Blacks="14.12"
   crs:Clarity="29.92"
   crs:Vibrance="-91.31"
   crs:Saturation="-87.29"
  />
 </rdf:RDF>
</x:xmpmeta>
<?xpacket end="w"?>