database/seeders/images/presets/Urban_Cool.xmp
<?xpacket begin="﻿" id="W5M0MpCehiHzreSzNTczkc9d"?>
<x:xmpmeta xmlns:x="adobe:ns:meta/">
 <rdf:RDF xmlns:rdf="http://www.w3.org/1999/02/22-rdf-syntax-ns#">
  <rdf:Description
   xmlns:crs="http://ns.adobe.com/camera-raw-settings/1.0/"
   crs:Version="12.0"
   crs:Exposure="-0.97"
   crs:Contrast="21.52"
   crs:Highlights="-83.29"
   crs:Shadows="-12.55"
   crs:Whites="45.96"
   crs:Blacks="-14.73"
   crs:Clarity="-20.09"
   crs:Vibrance="72.57"
   crs:Saturation="28.19"
  />
 </rdf:RDF>
</x:xmpmeta>
<?xpacket end="w"?>