database/seeders/images/presets/Vintage_Film.xmp
<?xpacket begin="﻿" id="W5M0MpCehiHzreSzNTczkc9d"?>
<x:xmpmeta xmlns:x="adobe:ns:meta/">
 <rdf:RDF xmlns:rdf="http://www.w3.org/1999/02/22-rdf-syntax-ns#">
  <rdf:Description
   xmlns:crs="http://ns.adobe.com/camera-raw-settings/1.0/"
   crs:Version="12.0"
   crs:Exposure="-0.61"
   crs:Contrast="14.24"
   crs:Highlights="-64.72"
   crs:Shadows="-55.91"
   crs:Whites="-0.95"
   crs:Blacks="-37.04"
   crs:Clarity="56.23"
   crs:Vibrance="-0.81"
   crs:Saturation="10.87"
  />
 </rdf:RDF>
</x:xmpmeta>
<?xpacket end="w"?>