database/seeders/images/presets/Vintage_Gold.xmp
<?xml version='1.0' encoding='UTF-8'?>
<xmpmeta xmlns="adobe:ns:meta/" xmlns:rdf="http://www.w3.org/1999/02/22-rdf-syntax-ns#" xmlns:crs="http://ns.adobe.com/camera-raw-settings/1.0/">
  <rdf:RDF>
    <rdf:Description rdf:about="" crs:Contrast2012="-5" crs:Highlights2012="-40" crs:Shadows2012="50" crs:Clarity2012="-10" crs:GrainAmount="30" crs:Temperature="7000"/>
  </rdf:RDF>
</xmpmeta>
