database/seeders/images/presets/Winter_Chill.xmp
<?xpacket begin="﻿" id="W5M0MpCehiHzreSzNTczkc9d"?>
<x:xmpmeta xmlns:x="adobe:ns:meta/">
 <rdf:RDF xmlns:rdf="http://www.w3.org/1999/02/22-rdf-syntax-ns#">
  <rdf:Description
   xmlns:crs="http://ns.adobe.com/camera-raw-settings/1.0/"
   crs:Version="12.0"
   crs:Exposure="0.98"
   crs:Contrast="29.76"
   crs:Highlights="-51.79"
   crs:Shadows="57.19"
   crs:Whites="18.51"
   crs:Blacks="24.43"
   crs:Clarity="10.22"
   crs:Vibrance="-79.34"
   crs:Saturation="5.60"
  />
 </rdf:RDF>
</x:xmpmeta>
<?xpacket end="w"?>